X:1
T:Title
%%score { 1 | 2 }
L:1/8
M:3/4
K:Ab
V:1 treble nm="Grand Piano"
V:2 bass 
V:1
 z2 z2 z[Q:1/4=100] [CE] | [CE][CA] [CA]3 [DB] | cc c3 [EA] | BB B3 c |[M:5/8] [CA][DF] [CE]3 | %5
[M:1/8] [CE] |[M:3/4] [CE][CA] [CA]3 [DB] | cc c3 c | BB B3 c |[M:5/8] [CA][CA] [CA]3 | %10
[M:1/8] [CE] |[M:3/4] [CE][CA] [CA]3 [DB] | c2 c3 [EA] | BB B3 c |[M:5/8] [CA][DF] [CE]3 | %15
[M:1/8] [CE] |[M:3/4] [CE][CA] [CA]3 [DB] | c2 c3 c | [GB]3 [Ge] [Gd][DGB] | [CA]4 z2 |] %20
V:2
 z2 z2 z [A,,A,] | [A,,A,][A,,A,] [A,,A,]3 [A,,A,] | [A,E][A,E] [A,E]3 [C,A,] | %3
 [E,G,D][E,G,D] [E,G,D]3 [E,A,E] |[M:5/8] [A,,A,][A,,A,] [A,,A,]3 |[M:1/8] [A,,A,] | %6
[M:3/4] [A,,A,][A,,A,] [A,,A,]3 [A,,A,] | [A,E][A,E] [A,E]3 [A,E] | %8
 [E,G,E][E,G,E] [E,G,E]3 [E,A,E] |[M:5/8] [A,,A,][A,,E,] [A,,E,]3 |[M:1/8] [A,,A,] | %11
[M:3/4] [A,,E,][A,,E,] [A,,E,]3 [A,,A,] | [A,E]2 [A,E]3 [C,A,] | [E,G,D][E,G,D] [E,G,D]3 [E,A,E] | %14
[M:5/8] [A,,A,]2 [A,,A,]3 |[M:1/8] [A,,A,] |[M:3/4] [A,,E,][A,,E,] [A,,E,]3 [A,,A,] | %17
 [A,E]2 [A,E]3 [A,EA] | [E,E]3 [E,E] [E,E]E, | A,,4 z2 |] %20

